X: 25121
T: Mairi's Wedding
R: polka
M: 2/4
K: Gmajor
D>E DE|GA B2|AG EG|BA B<d|
D>E DE|GA B2|AG E/D/C|D2 D2:|
d>e de|dc B2|AG EG|BA B<d|
d>e de|dc B2|AG E/D/C|D2 D2:|

